SVG_Azure_Grouped/Storage/Storage Account Resource sharing (CORS).svg

<?xml version="1.0" encoding="UTF-8" standalone="no"?>
<!-- Generated by Microsoft Visio, SVG Export Storage Account Resource sharing (CORS).svg Page-1 -->

<svg
   xmlns:dc="http://purl.org/dc/elements/1.1/"
   xmlns:cc="http://creativecommons.org/ns#"
   xmlns:rdf="http://www.w3.org/1999/02/22-rdf-syntax-ns#"
   xmlns:svg="http://www.w3.org/2000/svg"
   xmlns="http://www.w3.org/2000/svg"
   xmlns:sodipodi="http://sodipodi.sourceforge.net/DTD/sodipodi-0.dtd"
   xmlns:inkscape="http://www.inkscape.org/namespaces/inkscape"
   width="0.79438972in"
   height="0.78736126in"
   viewBox="0 0 57.196043 56.690096"
   xml:space="preserve"
   class="st3"
   version="1.1"
   id="svg29"
   sodipodi:docname="Storage Account Resource sharing (CORS).svg"
   style="font-size:12px;overflow:visible;color-interpolation-filters:sRGB;fill:none;fill-rule:evenodd;stroke-linecap:square;stroke-miterlimit:3"
   inkscape:version="0.92.5 (2060ec1f9f, 2020-04-08)"><metadata
   id="metadata35"><rdf:RDF><cc:Work
       rdf:about=""><dc:format>image/svg+xml</dc:format><dc:type
         rdf:resource="http://purl.org/dc/dcmitype/StillImage" /></cc:Work></rdf:RDF></metadata><defs
   id="defs33" /><sodipodi:namedview
   pagecolor="#ffffff"
   bordercolor="#666666"
   borderopacity="1"
   objecttolerance="10"
   gridtolerance="10"
   guidetolerance="10"
   inkscape:pageopacity="0"
   inkscape:pageshadow="2"
   inkscape:window-width="640"
   inkscape:window-height="480"
   id="namedview31"
   showgrid="false"
   inkscape:zoom="1.3289007"
   inkscape:cx="38.128524"
   inkscape:cy="37.791334"
   inkscape:window-x="0"
   inkscape:window-y="0"
   inkscape:window-maximized="0"
   inkscape:current-layer="svg29" />
	<style
   type="text/css"
   id="style2">
	<![CDATA[
		.st1 {fill:#3999c6;stroke:none;stroke-linecap:butt;stroke-width:38.25}
		.st2 {fill:#ffffff;stroke:none;stroke-linecap:butt;stroke-width:38.25}
		.st3 {fill:none;fill-rule:evenodd;font-size:12px;overflow:visible;stroke-linecap:square;stroke-miterlimit:3}
	]]>
	</style>

	<g
   id="g27"
   transform="translate(-38.249185,-38.249947)">
		<title
   id="title4">Page-1</title>
		<g
   id="group20100-1"
   transform="translate(38.499,-38.25)">
			<title
   id="title6">Storage Account Resource sharing (CORS).20100</title>
			<g
   id="group20101-2">
				<title
   id="title8">Sheet.20101</title>
				<g
   id="shape20102-3">
					<title
   id="title10">Sheet.20102</title>
					<path
   d="M 10.97,127.35 A 28.5686,28.3252 0 0 1 5.64,87.62 28.5292,28.2862 0 0 1 28.37,76.5 c 6.05,0 12.17,1.89 17.35,5.84 a 28.565,28.3217 0 0 1 5.33,39.74 28.5507,28.3075 0 0 1 -22.73,11.11 28.4756,28.2331 0 0 1 -17.35,-5.84 z"
   class="st1"
   id="path12"
   inkscape:connector-curvature="0"
   style="fill:#3999c6;stroke:none;stroke-width:38.25;stroke-linecap:butt" />
				</g>
				<g
   id="shape20103-5"
   transform="translate(4.75893,-20.2748)">
					<title
   id="title15">Sheet.20103</title>
					<path
   d="m 36.45,99.69 a 28.1719,27.9319 -180 0 0 -4.41,-1.75 c -5.25,7.7 -14.4,16.65 -22.63,23.55 -0.06,0.05 -0.08,0.1 -0.14,0.16 a 38.0819,37.7575 0 0 1 -4.15,-5.67 c 0,0 -2.99,6.99 -5.12,15.52 9.47,1.69 18.25,-1.27 18.25,-1.27 0,0 -2.83,-2.21 -6.05,-5.45 8.39,-6.42 17.59,-15.34 24.25,-25.09 z"
   class="st2"
   id="path17"
   inkscape:connector-curvature="0"
   style="fill:#ffffff;stroke:none;stroke-width:38.25;stroke-linecap:butt" />
				</g>
				<g
   id="shape20104-7"
   transform="translate(4.27648,-7.89449)">
					<title
   id="title20">Sheet.20104</title>
					<path
   d="m 44.53,100.74 c 0,0 -1.54,1.92 -5.42,5.02 C 31.53,97.25 19.74,91.48 6.39,90.32 A 26.9175,26.6882 -180 0 0 1.28,95.45 L 1.2,95.56 c 1.17,0.05 2.35,0.13 3.54,0.25 11.07,0.9 21.35,6.63 28.36,14.32 -2.03,1.34 -4.35,2.77 -7.02,4.28 0,0 9.76,2.86 18.01,8.75 2.43,-10.23 0.44,-22.42 0.44,-22.42 z m -20.46,19.8 a 6.43275,6.37795 -180 0 0 -6.43,6.37 c 0,0.1 0.02,0.19 0.03,0.29 A 44.0643,43.689 0 0 1 0,128.24 c 1.16,1.77 2.54,3.44 4.12,4.95 a 48.41,47.9976 -180 0 0 15.39,-1.78 6.43275,6.37795 -180 1 0 4.56,-10.87 z"
   class="st2"
   id="path22"
   inkscape:connector-curvature="0"
   style="fill:#ffffff;stroke:none;stroke-width:38.25;stroke-linecap:butt" />
				</g>
			</g>
		</g>
	</g>
</svg>

<?xml version="1.0" encoding="UTF-8" standalone="no"?>
<!DOCTYPE svg PUBLIC "-//W3C//DTD SVG 1.1//EN" "http://www.w3.org/Graphics/SVG/1.1/DTD/svg11.dtd">
<!-- Generated by Microsoft Visio, SVG Export Storage Account Resource sharing (CORS).svg Page-1 -->
<svg xmlns="http://www.w3.org/2000/svg" xmlns:xlink="http://www.w3.org/1999/xlink" xmlns:ev="http://www.w3.org/2001/xml-events"
		width="1.85682in" height="1.8499in" viewBox="0 0 133.691 133.193" xml:space="preserve" color-interpolation-filters="sRGB"
		class="st3">
	<style type="text/css">
	<![CDATA[
		.st1 {fill:#3999c6;stroke:none;stroke-linecap:butt;stroke-width:38.25}
		.st2 {fill:#ffffff;stroke:none;stroke-linecap:butt;stroke-width:38.25}
		.st3 {fill:none;fill-rule:evenodd;font-size:12px;overflow:visible;stroke-linecap:square;stroke-miterlimit:3}
	]]>
	</style>

	<g>
		<title>Page-1</title>
		<g id="group19645-1" transform="translate(38.499,-38.25)">
			<title>Storage Account Resource sharing (CORS).19645</title>
			<g id="group19646-2">
				<title>Sheet.19646</title>
				<g id="shape19647-3">
					<title>Sheet.19647</title>
					<path d="M10.97 127.35 A28.5686 28.3252 0 0 1 5.64 87.62 A28.5292 28.2862 0 0 1 28.37 76.5 C34.42 76.5 40.54
								 78.39 45.72 82.34 A28.565 28.3217 0 0 1 51.05 122.08 A28.5507 28.3075 0 0 1 28.32 133.19 A28.4756
								 28.2331 0 0 1 10.97 127.35 Z" class="st1"/>
				</g>
				<g id="shape19648-5" transform="translate(4.75893,-20.2748)">
					<title>Sheet.19648</title>
					<path d="M36.45 99.69 A28.1719 27.9319 -180 0 0 32.04 97.94 C26.79 105.64 17.64 114.59 9.41 121.49 C9.35 121.54
								 9.33 121.59 9.27 121.65 A38.0819 37.7575 0 0 1 5.12 115.98 C5.12 115.98 2.13 122.97 0 131.5 C9.47
								 133.19 18.25 130.23 18.25 130.23 C18.25 130.23 15.42 128.02 12.2 124.78 C20.59 118.36 29.79 109.44
								 36.45 99.69 Z" class="st2"/>
				</g>
				<g id="shape19649-7" transform="translate(4.27648,-7.89449)">
					<title>Sheet.19649</title>
					<path d="M44.53 100.74 C44.53 100.74 42.99 102.66 39.11 105.76 C31.53 97.25 19.74 91.48 6.39 90.32 A26.9175 26.6882
								 -180 0 0 1.28 95.45 L1.2 95.56 C2.37 95.61 3.55 95.69 4.74 95.81 C15.81 96.71 26.09 102.44 33.1
								 110.13 C31.07 111.47 28.75 112.9 26.08 114.41 C26.08 114.41 35.84 117.27 44.09 123.16 C46.52 112.93
								 44.53 100.74 44.53 100.74 ZM24.07 120.54 A6.43275 6.37795 -180 0 0 17.64 126.91 C17.64 127.01 17.66
								 127.1 17.67 127.2 A44.0643 43.689 0 0 1 -0 128.24 C1.16 130.01 2.54 131.68 4.12 133.19 A48.41 47.9976
								 -180 0 0 19.51 131.41 A6.43275 6.37795 -180 1 0 24.07 120.54 Z" class="st2"/>
				</g>
			</g>
		</g>
	</g>
</svg>
